!!!!SEGMENT: pl-wnifc--13846--110_anonim--piesni-polskie-i-ruskie-ludu-galicyjskiego-110-szczorniw-ja-zmarniw-ja.krn
!!!cenid: 18xx:3332
!!!COM: Anonim
!!!COM-rismid: pe30004985
!!!CDT:
!!!CNT:
!!!GTL: Pieśni polskie i ruskie ludu galicyjskiego
!!!OTL: 110. Szczorniw ja, zmarniw ja
!!!PDT: 1833
!!!AGN:
!!!SMS-siglum: PL-Wnifc
!!!SMS-shelfmark: 13846
!!!SMS-shelfwork: 110 G
!!!NIFC-rismid: 1001039527
!!!URL-scan: http://repozytorium.nifc.pl/skany/pl-wnifc-nut--13846
!!!ONB-nifc:
!!!OMD: Largo
!!!key: e
**kern	**kern	**dynam	**kern	**text
*group2	*group2	*	*group1	*
*part2	*part2	*part2	*part1	*part1
*staff3	*staff2	*	*staff1	*staff1
*I"[Piano]	*I"[Piano]	*	*I"[Soprano]	*
*Ipiano	*Ipiano	*	*Isoprn	*
*ICklav	*ICklav	*	*ICvox	*
*IGacmp	*IGacmp	*	*IGsolo	*
*clefF4	*clefG2	*	*clefG2	*
*k[f#]	*k[f#]	*	*k[f#]	*
*e:	*e:	*	*e:	*
*M2/4	*M2/4	*	*M2/4	*
=1-	=1-	=1-	=1-	=1-
*^	*	*	*	*
!!mixed beam:problem
!LO:TX:t=P:problem:mixed beam	!LO:TX:t=P:problem:4\right:global	!	!	!LO:TX:b:B:rj:t=E.142.	!
8EEL/	4EE\	(>16gg\LL	.	16g/LL	Szczor-
.	.	16ff#\)	.	16f#/JJ	.
8GJ\ 8B\ 8e\	.	(>16ee\	.	16e/LL	-niw
.	.	16dd#X\JJ)	.	16d#X/JJ	.
4E	8EL\	8..ee\L	.	8..e/L	ja,
.	8E\J 8G\ 8B\ 8e\	.	.	.	.
.	.	32gg\Jkk	.	32g/Jkk	.
=2	=2	=2	=2	=2	=2
!!mixed beam:problem
!LO:TX:t=P:problem:mixed beam	!	!	!	!	!
8BBL/	4BB\	8..ff#\L	>	8..f#/	zmar-
8F#\J 8A\ 8d#X\ 8f#\	.	.	.	.	.
.	.	32dd#X\Jkk	]	32d#X/	-niw
!!mixed beam:problem
!LO:TX:t=P:problem:mixed beam	!	!	!	!	!
8BBL/	4BB\	4b\	.	4B/	ja,
8D#X\J 8F#\ 8A\ 8B\	.	.	.	.	.
!!LO:LB:g=original
=3	=3	=3	=3	=3	=3
!!mixed beam:problem
!LO:TX:t=P:problem:mixed beam	!	!	!	!	!
8EEL/	4ryy	(>16gg\LL	.	16g/LL	po
.	.	16ff#\)	.	16f#/JJ	.
8EJ\ 8G\ 8B\ 8e\	.	(>16ee\	.	16e/LL	po-
.	.	16dd#X\JJ)	.	16d#X/JJ	.
4C/	8CL\	(>16ee\LL	.	16e/LL	-lu
.	.	16ff#\	.	16f#/	.
.	8CJ\ 8E\ 8c\	16gg\)	.	16g/JJ	.
!	!	!LO:TX:a:t=|:problem	!	!	!
.	.	16aa#X\JJ	.	16a#X/	cho-
=4	=4	=4	=4	=4	=4
!	!LO:TX:t=P:problem:8\right	!	!	!	!
4BB/	8BBL\	8.ee\L 8.bb\	>	8.b/	-diasz-
.	8EJ\ 8G\ 8B\	.	.	.	.
!	!	!LO:TX:a:t=|:problem	!	!	!
.	.	16ee\Jk 16gg\	]	16g/	.
!	!	!LO:TX:a:t=|:problem	!	!	!
4BB/	8BBL\	8dd#X\ 8ff#\	.	8f#/	-czy
.	8D#XJ\ 8F#\ 8B\	8r	.	8r	.
!!LO:LB:g=original
=5	=5	=5	=5	=5	=5
*	*	*^	*	*	*
4E/	8EL\	(</16ggLL	4g\	.	16g/LL	za
!	!	!	!LO:TX:t=P:problem:wytarta nuta	!	!	!
.	.	16ff#/	.	.	16f#/JJ	.
.	8E\J 8G\ 8B\ 8e\	16ee/	.	.	16e/LL	to-
.	.	16dd#X/JJ)	.	.	16d#X/JJ	.
!	!	!	!LO:N:xstem	!	!	!
!	!	!	!LO:TX:t=P:problem:wytarta nuta po 4g	!	!	!
4E/	8EL\	(</8..eeL	4g\	>	8..e/L	-bo-
.	8E\J 8B\ 8e\	.	.	.	.	.
.	.	32gg/Jkk)	.	]	32g/Jkk	-ju,
=6	=6	=6	=6	=6	=6	=6
4BB/	8BBL\	8..ff#/L	4f#\	>	8..f#/	diw-
.	8F#\J 8A\ 8d#X\ 8f#\	.	.	.	.	.
.	.	32dd#X/Jkk	.	]	32d#X/	-czy-
4BB/	8BBL\	8b/L	4f#\	.	8B/	-noń-
!	!	!LO:TX:b:t=|:problem	!	!`	!	!
.	8F#\J 8A\ 8B\ 8d#X\	8b/J	.	.	8b\	-ko,
*	*	*v	*v	*	*	*
!!LO:LB:g=original
=7	=7	=7	=7	=7	=7
4BB/	8BBL\	16dd#X\	.	16dd#X\	tu-
.	.	8.dd#\	.	8.dd#\	-zasz-
.	8BB\J 8F#\ 8A\ 8B\	.	.	.	.
4BB/	8BBL\	(>8.b\L	.	(>8.b\L	-czy
.	8BB\J 8F#\ 8A\ 8B\	.	.	.	.
!	!	!LO:SIC:v:s:t=32cc#	!	!	!
.	.	32cc#y\LL)	.	32cc#X\Jkk)	.
!	!	!LO:TX:a:t=|:problem	!	!	!
.	.	32dd#\JJJ	.	32dd#	tu-
*v	*v	*	*	*	*
=8	=8	=8	=8	=8
!!mixed beam:problem
!LO:TX:t=P:problem:mixed beam	!	!	!	!
8EE/L	4ee\	.	4ee\	-zasz-
8G\ 8B\	.	.	.	.
8E\J 8G\ 8B\	8ee\	.	8ee\	-czy.
8r	8r	.	8r	.
=:|!	=:|!	=:|!	=:|!	=:|!
*-	*-	*-	*-	*-
!!!system-decoration: g1[{g2}]
!!!EED: Jędrzej Mróz
!!!ESR: 2021-11-11
!!!RDF**kern: > = above
!!!RDF**kern: < = below
